X:1
T:Title
%%score 1 ( 2 3 )
L:1/8
Q:1/4=105
M:3/4
K:Eb
V:1 treble nm="Grand Piano, Soprano"
V:2 bass nm="Choir Pad, O Sweet Rest"
V:3 bass 
V:1
 E>[EG] [GB]3 [GB] | [GB]2 [EG] [EG]3 | [GB]2 [Ac]4 | [Ac]>[Ac] [GB]4 | [EG]2 [GB]4 | %5
w: By~Jonas~Trumbauer * * *|||||
 [AB]>[AB] B B3 | [GB][GB] [FB]2 [FA]2 | [EG]2 [DF]4 | [DB]>[DA] [EG]4 | [EG]>[DF] E E3 | %10
w: |||||
 [GB]2 [Ac]3 [Ac] | [Ac]2 [GB]4 | [EB]2 [Ee]4 | [Ec]>[Ec] [EB] [EG]3 | EF [EG] [EG]3 | [DF]2 E4- | %16
w: ||||||
 E2 [GB]4 | [EG]2 [B,E]4- | [B,E]2 [Be]4 | [Ac]2 [GB]4 | E>[EG] [GB]4 | [AB]>[AB] [GB]4 | %22
w: ||||||
 [GB]2 [FB]2 [FA]2 | [EG]2 [DF]4 | [DB]>A [EG]4 | [EG]>[DF] E E3 | [GB]2 [Ac]3 [Ac] | [Ac]2 [GB]4 | %28
w: ||||||
 [EB]2 [Ee]4 | [Ec]>[Ec] [EB] [EG]3 | EF [EG] [EG]3 | [DF]2 E4- | E4 z2 |] %33
w: |||||
V:2
 [E,G,]>[E,B,] [E,E]3 [E,E] | [E,E]2 [E,B,] [E,B,]3 | [E,E]2 [A,E]4 | [A,E]>[A,E] [E,E]4 | %4
 [E,B,]2 [E,E]4 | [F,D]>[F,D] [G,E] [G,E]3 | [E,E][E,E] [D,B,]2 [D,B,]2 | [E,B,]2 [B,,B,]4 | %8
 [B,,B,]>[B,,B,] [E,B,]4 | [E,B,]>[F,B,] [G,B,] [G,B,]3 | [E,E]2 [A,E]3 [A,E] | [A,E]2 [E,E]4 | %12
 [E,G,]2 [E,C]4 | [E,A,]>[E,A,] [E,G,] [E,B,]3 | [C,=A,]2 [B,,B,] [B,,B,]3 | [B,,A,]2 [E,G,]4- | %16
 [E,G,]2 [G,E]4 | z6 | z2 B,2 z2 | [A,E]2 [E,E]4 | [E,G,]>[E,B,] [E,E]4 | [F,D]>[F,D] [G,E]4 | %22
 [E,B,]2 [D,B,]2 [D,B,]2 | [E,B,]2 [B,,B,]4 | [B,,B,]2 [E,B,]4 | [E,B,]>[F,B,] [G,B,] [G,B,]3 | %26
 [E,E]2 [A,E]3 [A,E] | [A,E]2 [E,E]4 | [E,G,]2 [E,C]4 | [E,A,]>[E,A,] [E,G,] [E,B,]3 | %30
 [C,=A,]2 [B,,B,] [B,,B,]3 | [B,,A,]2 [E,G,]4- | [E,G,]4 z2 |] %33
V:3
 x6 | x6 | x6 | x6 | x6 | x6 | x6 | x6 | x6 | x6 | x6 | x6 | x6 | x6 | x6 | x6 | x6 | %17
 [E,B,]2 [E,G,]4- | [E,G,]2 G,2- [G,E]2 | x6 | x6 | x6 | x6 | x6 | x6 | x6 | x6 | x6 | x6 | x6 | %30
 x6 | x6 | x6 |] %33

